X:1
L:1/4
Q:1/4=72
M:3/8
V:1
V:2 clef=bass 
K:C
[V:1] B/ z/4 D/4c/4B/4 | A/ z/4 [Ec]/4[Fc]/4[EGc]/4 | [FAc]3/4 z/4 (3f/4 z/4 e/4 | e/d/(3_b/4 z/4 a/4 |
[V:2] E,,/4E,/4^G,/4 z3/4 | A,,/4E,/4A,/4[_B,C]/4[A,C]/4[=G,_B,C]/4 | F,/4A,/4C/4A,/4C/4A,/4 | F,/4_B,/4D/4_B,/4D/4_B,/4 |
